X:1
L:1/8
Q:1/2=108
M:4/4
K:G
 B>A | G3 A (B3 c) | d3 g dBAG | c3 d dBAG | FGAB A3 | cBcd efge | dBAG{G} F2 ED | GBAc BdAc | 
 B2 G2 G2 :| ge | dBGB d3 e | dBGB d2 cB | cBcd efga | f2 d2 d2 cB | cBcd efge | dBAG{G} TF2 ED | 
 GBAc BdAc | B2 G2 G2 :|
